apps/www/public/images/ga/partners/cloudflare--light.svg

<svg width="532" height="176" viewBox="0 0 532 176" fill="none" xmlns="http://www.w3.org/2000/svg">
<g clip-path="url(#clip0_868_2111)">
<g clip-path="url(#clip1_868_2111)">
<path d="M496.414 55.6896L467.089 48.8598L461.852 46.7583L327.27 47.8091V112.955L496.414 113.481V55.6896Z" fill="white"/>
<path d="M441.429 107.176C442.271 104.939 442.569 102.531 442.295 100.155C442.022 97.779 441.186 95.5028 439.858 93.5165C438.494 91.8753 436.82 90.5201 434.933 89.5285C433.046 88.5368 430.983 87.9282 428.861 87.7374L337.743 86.6866C337.219 86.6866 336.695 86.1613 336.172 86.1613C336.05 86.0695 335.951 85.9505 335.882 85.8138C335.814 85.677 335.779 85.5261 335.779 85.3732C335.779 85.2203 335.814 85.0695 335.882 84.9327C335.951 84.7959 336.05 84.6769 336.172 84.5852C336.695 83.5344 337.219 83.009 338.266 83.009L429.908 81.9583C435.726 81.3105 441.267 79.1195 445.961 75.6107C450.655 72.1019 454.333 67.4018 456.615 61.9941L461.852 48.3344C461.852 47.809 462.376 47.2837 461.852 46.7583C459.005 34.036 452.096 22.5938 442.175 14.1704C432.255 5.74711 419.864 0.803114 406.887 0.0897174C393.91 -0.623679 381.055 2.93252 370.276 10.2179C359.498 17.5034 351.384 28.1197 347.169 40.4538C341.696 36.5326 335.021 34.6723 328.317 35.2001C322.164 35.8884 316.427 38.6557 312.05 43.0476C307.672 47.4394 304.914 53.1945 304.228 59.3672C303.879 62.5268 304.056 65.7226 304.751 68.824C294.796 69.1001 285.341 73.262 278.397 80.4245C271.454 87.5869 267.57 97.1847 267.571 107.176C267.485 109.117 267.661 111.061 268.095 112.955C268.119 113.365 268.292 113.752 268.581 114.043C268.871 114.333 269.257 114.507 269.666 114.531H437.763C438.811 114.531 439.858 114.006 439.858 112.955L441.429 107.176Z" fill="#F48120"/>
<path d="M470.231 48.3345H467.612C467.089 48.3345 466.565 48.8598 466.041 49.3852L462.376 61.9942C461.533 64.2318 461.236 66.6391 461.509 69.0152C461.783 71.3914 462.618 73.6676 463.947 75.6539C465.311 77.2951 466.985 78.6503 468.872 79.6419C470.759 80.6336 472.822 81.2422 474.944 81.433L494.319 82.4837C494.843 82.4837 495.367 83.0091 495.89 83.0091C496.012 83.1009 496.111 83.2198 496.18 83.3566C496.248 83.4934 496.283 83.6442 496.283 83.7972C496.283 83.9501 496.248 84.1009 496.18 84.2377C496.111 84.3745 496.012 84.4935 495.89 84.5852C495.367 85.636 494.843 86.1613 493.796 86.1613L473.896 87.2121C468.078 87.8598 462.538 90.0508 457.844 93.5597C453.15 97.0685 449.472 101.769 447.189 107.176L446.142 111.905C445.618 112.43 446.142 113.481 447.189 113.481H516.314C516.527 113.511 516.745 113.492 516.949 113.423C517.154 113.355 517.339 113.24 517.492 113.087C517.644 112.934 517.759 112.747 517.827 112.542C517.895 112.337 517.915 112.119 517.885 111.905C519.131 107.453 519.835 102.866 519.979 98.2449C519.896 85.0336 514.628 72.387 505.317 63.0449C496.005 53.7029 483.399 48.4177 470.231 48.3345Z" fill="#FAAD3F"/>
<path d="M526.787 142.901C525.855 142.901 524.944 142.624 524.169 142.105C523.394 141.585 522.79 140.847 522.433 139.983C522.076 139.119 521.983 138.168 522.165 137.251C522.347 136.333 522.796 135.491 523.455 134.83C524.114 134.168 524.954 133.718 525.868 133.536C526.782 133.353 527.73 133.447 528.591 133.805C529.452 134.163 530.188 134.769 530.706 135.546C531.224 136.324 531.5 137.238 531.5 138.173C531.503 138.795 531.383 139.411 531.147 139.986C530.911 140.56 530.564 141.083 530.126 141.522C529.687 141.962 529.167 142.31 528.594 142.547C528.021 142.784 527.407 142.904 526.787 142.901ZM526.787 134.495C526.062 134.495 525.354 134.711 524.751 135.115C524.148 135.519 523.678 136.094 523.401 136.766C523.123 137.438 523.051 138.177 523.192 138.891C523.333 139.604 523.683 140.259 524.195 140.774C524.708 141.288 525.361 141.638 526.072 141.78C526.783 141.922 527.52 141.849 528.19 141.571C528.86 141.292 529.432 140.821 529.835 140.216C530.238 139.611 530.453 138.9 530.453 138.173C530.465 137.687 530.378 137.203 530.198 136.752C530.018 136.3 529.748 135.89 529.406 135.546C529.063 135.202 528.654 134.932 528.204 134.751C527.754 134.571 527.272 134.484 526.787 134.495ZM528.882 140.8H527.835L526.787 139.224H525.74V140.8H524.693V136.072H527.311C527.524 136.041 527.742 136.061 527.946 136.129C528.151 136.197 528.337 136.313 528.489 136.466C528.642 136.619 528.756 136.805 528.825 137.01C528.893 137.215 528.912 137.434 528.882 137.648C528.882 138.173 528.358 138.698 527.835 139.224L528.882 140.8ZM527.311 138.173C527.835 138.173 527.835 138.173 527.835 137.648C527.836 137.578 527.824 137.509 527.798 137.445C527.772 137.381 527.733 137.322 527.685 137.273C527.636 137.224 527.577 137.185 527.513 137.159C527.449 137.133 527.38 137.121 527.311 137.122H525.74V138.698H527.311V138.173ZM57.5802 133.445H69.1009V164.967H89.0003V174.949H57.5802V133.445ZM101.045 153.934C101.045 151.016 101.635 148.128 102.781 145.446C103.926 142.763 105.602 140.341 107.707 138.328C109.812 136.314 112.303 134.749 115.028 133.73C117.754 132.71 120.657 132.255 123.562 132.394C126.441 132.264 129.315 132.728 132.008 133.758C134.7 134.787 137.153 136.36 139.215 138.38C141.277 140.399 142.903 142.821 143.994 145.497C145.085 148.172 145.617 151.044 145.557 153.934C145.556 156.853 144.966 159.74 143.821 162.423C142.676 165.106 141 167.527 138.894 169.541C136.789 171.555 134.298 173.119 131.573 174.139C128.848 175.159 125.944 175.613 123.039 175.475C120.172 175.56 117.316 175.065 114.644 174.02C111.971 172.974 109.536 171.399 107.484 169.389C105.431 167.379 103.803 164.974 102.697 162.319C101.59 159.664 101.029 156.812 101.045 153.934ZM134.036 153.934C134.138 152.478 133.946 151.016 133.469 149.636C132.993 148.257 132.242 146.988 131.263 145.908C130.284 144.828 129.097 143.958 127.773 143.35C126.45 142.743 125.017 142.412 123.562 142.376C120.739 142.514 118.076 143.737 116.126 145.791C114.177 147.845 113.089 150.573 113.089 153.409C113.089 156.245 114.177 158.973 116.126 161.027C118.076 163.081 120.739 164.303 123.562 164.442C129.846 165.492 134.036 160.239 134.036 153.934ZM159.696 156.561V133.445H171.216V156.561C171.216 162.34 174.358 165.493 179.071 165.493C180.172 165.584 181.279 165.425 182.31 165.027C183.341 164.629 184.269 164.003 185.024 163.194C185.779 162.386 186.343 161.417 186.672 160.359C187.002 159.301 187.089 158.183 186.926 157.087V133.445H198.447V156.561C198.447 170.221 190.592 176 179.071 176C167.027 175.475 159.696 169.695 159.696 156.561ZM215.728 133.445H231.962C246.625 133.445 255.527 141.851 255.527 153.934C255.527 166.018 246.625 174.949 231.962 174.949H216.252V133.445H215.728ZM231.962 164.442C233.421 164.581 234.893 164.414 236.284 163.949C237.675 163.485 238.954 162.734 240.039 161.745C241.123 160.755 241.99 159.549 242.583 158.204C243.176 156.859 243.483 155.405 243.483 153.934C243.483 152.464 243.176 151.009 242.583 149.664C241.99 148.319 241.123 147.113 240.039 146.124C238.954 145.135 237.675 144.384 236.284 143.919C234.893 143.455 233.421 143.287 231.962 143.427H227.249V164.442H231.962ZM271.761 133.445H304.752V143.427H283.281V150.257H302.657V159.713H283.281V174.949H271.761V133.445ZM320.986 133.445H332.506V164.967H352.406V174.949H320.986V133.445ZM382.255 132.919H393.775L411.58 174.949H399.012L395.87 167.594H379.636L376.494 174.949H364.45L382.255 132.919ZM392.728 158.663L388.015 147.104L383.302 158.663H392.728ZM426.243 133.445H445.619C448.091 133.244 450.578 133.56 452.921 134.374C455.265 135.188 457.415 136.482 459.234 138.173C460.734 139.796 461.823 141.758 462.408 143.892C462.993 146.026 463.057 148.271 462.595 150.435C462.133 152.6 461.158 154.62 459.752 156.327C458.347 158.033 456.553 159.375 454.521 160.239L464.471 174.949H451.379L443 162.34H437.764V174.949H426.243V133.445ZM445.095 153.409C448.761 153.409 451.379 151.307 451.379 148.681C451.379 145.528 448.761 143.952 445.095 143.952H437.764V153.934H445.095V153.409ZM479.133 133.445H512.648V142.901H490.654V149.206H510.554V158.663H490.654V164.967H513.172V174.949H479.133V133.445ZM32.4441 159.188C31.6543 161.045 30.342 162.63 28.6677 163.75C26.9935 164.87 25.0302 165.475 23.0181 165.493C20.1943 165.354 17.5317 164.131 15.582 162.078C13.6322 160.024 12.5447 157.296 12.5447 154.46C12.5447 151.623 13.6322 148.896 15.582 146.842C17.5317 144.788 20.1943 143.565 23.0181 143.427C25.1597 143.468 27.2425 144.137 29.0103 145.35C30.7781 146.564 32.1537 148.269 32.9678 150.257H45.0122C43.9818 145.224 41.2069 140.721 37.1802 137.547C33.1535 134.373 28.1357 132.733 23.0181 132.919C20.1234 132.825 17.2389 133.31 14.533 134.346C11.827 135.382 9.35384 136.948 7.25772 138.953C5.16159 140.958 3.4845 143.362 2.32432 146.024C1.16413 148.687 0.544075 151.554 0.500337 154.46C0.484218 157.337 1.04604 160.189 2.15229 162.844C3.25854 165.5 4.88655 167.904 6.9392 169.914C8.99184 171.925 11.4271 173.5 14.0996 174.545C16.7721 175.591 19.6272 176.085 22.4944 176C27.4979 176.034 32.3712 174.402 36.3512 171.36C40.3312 168.317 43.193 164.037 44.4885 159.188H32.4441Z" fill="#404041"/>
</g>
</g>
<defs>
<clipPath id="clip0_868_2111">
<rect width="532" height="176" fill="white"/>
</clipPath>
<clipPath id="clip1_868_2111">
<rect width="531" height="176" fill="white" transform="translate(0.5)"/>
</clipPath>
</defs>
</svg>

<svg xmlns="http://www.w3.org/2000/svg" width="532" height="176" fill="none" viewBox="0 0 532 176"><g clip-path="url(#a)"><g clip-path="url(#b)"><path fill="#fff" d="m496.414 55.69-29.325-6.83-5.237-2.102L327.27 47.81v65.146l169.144.526z"/><path fill="#f48120" d="M441.429 107.176a15.04 15.04 0 0 0-1.571-13.66 16.2 16.2 0 0 0-4.925-3.988 16.2 16.2 0 0 0-6.072-1.79l-91.118-1.051c-.524 0-1.048-.526-1.571-.526a.99.99 0 0 1 0-1.576c.523-1.05 1.047-1.576 2.094-1.576l91.642-1.05a32.9 32.9 0 0 0 16.053-6.348 33.03 33.03 0 0 0 10.654-13.617l5.237-13.66c0-.525.524-1.05 0-1.576a59.9 59.9 0 0 0-19.677-32.588A59.57 59.57 0 0 0 406.887.09a59.54 59.54 0 0 0-36.611 10.128 59.85 59.85 0 0 0-23.107 30.236 28.52 28.52 0 0 0-18.852-5.254 27.24 27.24 0 0 0-16.267 7.848 27.4 27.4 0 0 0-7.822 16.32 28.8 28.8 0 0 0 .523 9.456 38.18 38.18 0 0 0-26.354 11.6 38.43 38.43 0 0 0-10.826 26.752c-.086 1.941.09 3.885.524 5.779a1.674 1.674 0 0 0 1.571 1.576h168.097c1.048 0 2.095-.525 2.095-1.576z"/><path fill="#faad3f" d="M470.231 48.335h-2.619c-.523 0-1.047.525-1.571 1.05l-3.665 12.61a15.05 15.05 0 0 0 1.571 13.659 16.2 16.2 0 0 0 4.925 3.988c1.887.992 3.95 1.6 6.072 1.791l19.375 1.05c.524 0 1.048.526 1.571.526q.185.14.29.348a.99.99 0 0 1-.29 1.228c-.523 1.051-1.047 1.576-2.094 1.576l-19.9 1.051a32.9 32.9 0 0 0-16.052 6.348 33.05 33.05 0 0 0-10.655 13.616l-1.047 4.729c-.524.525 0 1.576 1.047 1.576h69.125a1.38 1.38 0 0 0 1.178-.394 1.4 1.4 0 0 0 .393-1.182 57.3 57.3 0 0 0 2.094-13.66 50.31 50.31 0 0 0-14.662-35.2 49.99 49.99 0 0 0-35.086-14.71"/><path fill="#404041" d="M526.787 142.901a4.705 4.705 0 0 1-4.354-2.918 4.74 4.74 0 0 1 1.022-5.153 4.7 4.7 0 0 1 5.136-1.025 4.72 4.72 0 0 1 2.909 4.368 4.71 4.71 0 0 1-1.374 3.349 4.667 4.667 0 0 1-3.339 1.379m0-8.406a3.672 3.672 0 0 0-3.386 2.271 3.69 3.69 0 0 0 .794 4.008 3.67 3.67 0 0 0 3.995.797 3.686 3.686 0 0 0 2.263-3.398 3.6 3.6 0 0 0-2.249-3.422 3.6 3.6 0 0 0-1.417-.256m2.095 6.305h-1.047l-1.048-1.576h-1.047v1.576h-1.047v-4.728h2.618a1.38 1.38 0 0 1 1.178.394 1.4 1.4 0 0 1 .393 1.182c0 .525-.524 1.05-1.047 1.576zm-1.571-2.627c.524 0 .524 0 .524-.525a.52.52 0 0 0-.322-.489.5.5 0 0 0-.202-.037h-1.571v1.576h1.571zm-469.73-4.728H69.1v31.522H89v9.982H57.58zm43.464 20.489a21.6 21.6 0 0 1 6.662-15.606 21.47 21.47 0 0 1 15.855-5.934 21.028 21.028 0 0 1 15.653 5.986 21.1 21.1 0 0 1 4.779 7.117 21.2 21.2 0 0 1 1.563 8.437 21.6 21.6 0 0 1-1.736 8.489 21.6 21.6 0 0 1-4.927 7.118 21.443 21.443 0 0 1-15.855 5.934 21.32 21.32 0 0 1-15.555-6.086 21.479 21.479 0 0 1-6.439-15.455m32.991 0a10.84 10.84 0 0 0-2.773-8.026 10.735 10.735 0 0 0-7.701-3.532 11 11 0 0 0-7.436 3.415 11.07 11.07 0 0 0 0 15.236 11 11 0 0 0 7.436 3.415c6.284 1.05 10.474-4.203 10.474-10.508m25.66 2.627v-23.116h11.52v23.116c0 5.779 3.142 8.932 7.855 8.932a7.32 7.32 0 0 0 5.953-2.299 7.35 7.35 0 0 0 1.648-2.835 7.35 7.35 0 0 0 .254-3.272v-23.642h11.521v23.116c0 13.66-7.855 19.439-19.376 19.439-12.044-.525-19.375-6.305-19.375-19.439m56.032-23.116h16.234c14.663 0 23.565 8.406 23.565 20.489s-8.902 21.015-23.565 21.015h-15.71v-41.504zm16.234 30.997a10.513 10.513 0 0 0 10.621-6.238 10.58 10.58 0 0 0 0-8.54 10.53 10.53 0 0 0-6.299-5.745 10.5 10.5 0 0 0-4.322-.492h-4.713v21.015zm39.799-30.997h32.991v9.982h-21.471v6.83h19.376v9.456h-19.376v15.236h-11.52zm49.225 0h11.52v31.522h19.9v9.982h-31.42zm61.269-.526h11.52l17.805 42.03h-12.568l-3.142-7.355h-16.234l-3.142 7.355H364.45zm10.473 25.744-4.713-11.559-4.713 11.559zm33.515-25.218h19.376a17.8 17.8 0 0 1 7.302.929 17.9 17.9 0 0 1 6.313 3.799 13.8 13.8 0 0 1 3.174 5.719c.585 2.134.649 4.379.187 6.543a13.8 13.8 0 0 1-2.843 5.892 13.74 13.74 0 0 1-5.231 3.912l9.95 14.71h-13.092L443 162.34h-5.236v12.609h-11.521zm18.852 19.964c3.666 0 6.284-2.102 6.284-4.728 0-3.153-2.618-4.729-6.284-4.729h-7.331v9.982h7.331zm34.038-19.964h33.515v9.456h-21.994v6.305h19.9v9.457h-19.9v6.304h22.518v9.982h-34.039zM32.444 159.188a10.37 10.37 0 0 1-3.776 4.562 10.33 10.33 0 0 1-5.65 1.743 11 11 0 0 1-7.436-3.415 11.07 11.07 0 0 1-3.037-7.618c0-2.837 1.087-5.564 3.037-7.618a11 11 0 0 1 7.436-3.415c2.142.041 4.224.71 5.992 1.923a11 11 0 0 1 3.958 4.907h12.044a21.73 21.73 0 0 0-7.832-12.71 21.6 21.6 0 0 0-14.162-4.628 21.8 21.8 0 0 0-8.485 1.427 21.8 21.8 0 0 0-7.275 4.607 21.9 21.9 0 0 0-4.934 7.071A21.95 21.95 0 0 0 .5 154.46a21.5 21.5 0 0 0 1.652 8.384 21.4 21.4 0 0 0 4.787 7.07A21.33 21.33 0 0 0 22.494 176a22.57 22.57 0 0 0 13.857-4.64 22.7 22.7 0 0 0 8.138-12.172z"/></g></g><defs><clipPath id="a"><path fill="#fff" d="M0 0h532v176H0z"/></clipPath><clipPath id="b"><path fill="#fff" d="M.5 0h531v176H.5z"/></clipPath></defs></svg>
